X: 24
T:Joan O'Neills #1
R:Polka
Z:added by Alf 
M:2/4
L:1/8
K:D
|AD FG|A2 A>B|c/B/A GF|EF GB|\
AD FG|A2 A>B|c/B/A GE|ED D2:|
Ad de|f2 e>d|c/B/A AB|cd ec|\
Ad de|f2 e>d|c/B/A GE|ED D2:|
